src/topics/icons/marionette.svg

<svg height="315" preserveAspectRatio="xMidYMid" viewBox="0 0 256 315" width="256" xmlns="http://www.w3.org/2000/svg"><path d="m150.815217 142.832419 29.445175-69.6468187c.34867-.8368078 1.324946-1.2325482 2.168727-.8821349.840295.3486699 1.243008 1.310999.889109 2.1495502l-25.94976 61.3693944z" fill="#939598"/><path d="m176.215821 107.388377s-14.091495 18.467302-24.037304 29.136602c-9.954527 10.672788-24.459196 27.499598-24.459196 27.499598v37.621486c.1046-.006974.200484-.027894.305086-.027894 2.405822 0 4.354887 1.926401 4.354887 4.306073 0 2.381416-1.950807 4.311304-4.354887 4.311304-.104602 0-.200486-.024406-.305086-.033124v37.956209s18.266818-12.41265 31.498841-24.420842c14.919586-13.540596 31.500585-34.683941 31.500585-34.683941l-14.502926-81.663728z" fill="#931a2b"/><path d="m117.376027 38.5487295-.135981 14.6668006-53.2296948 21.3211662.9361787-13.0315387 52.4312411-22.9599148z" fill="#a7a9ac"/><path d="m191.325433 60.9926129 1.037293 13.0263085-53.498171-20.8923021-.252786-14.6615706zm-63.353327-27.0811934.055788 14.9806035-77.8667125-30.4127347 1.6160852-17.14061368zm-76.1948393-32.57274488-1.6160852 17.14061368-10.32586 6.0930071 1.7851901-16.73615665z" fill="#bcbec0"/><path d="m203.82002.70060865 1.743349 17.13015365-77.535475 31.0612607-.057531-14.9823469z" fill="#a7a9ac"/><path d="m214.053482 7.11613535 1.915941 16.72395315-10.404311-6.0093262-1.743349-17.12841031z" fill="#bcbec0"/><path d="m74.6081737 77.5335144-10.599566-2.9950747 53.2314383-21.3211663-77.4047245-28.6432346 10.32586-6.0947505 77.8667125 30.4127347 77.537218-31.0612607 10.404311 6.0093262-77.104868 29.2882741 53.498171 20.8905588-10.573416 3.0822422-53.712603-19.8741859-53.4685333 20.3030499z" fill="#808285"/><path d="m40.6756161 120.550667c-.0557872 0-.1115744 0-.1656182-.008717-.9100285-.090654-1.5759881-.889108-1.4853339-1.79565l9.4890521-94.6813193c.0906541-.8978251.8821349-1.560298 1.8130836-1.4696438.9100285.0871675 1.5759881.892595 1.485334 1.7921634l-9.4873088 94.6813197c-.0871675.847267-.8019409 1.481847-1.6457221 1.481847zm170.6198869 0c-.866445 0-1.600395-.672933-1.650952-1.542865l-5.73562-95.3315884c-.055787-.9065417.639809-1.685819 1.555067-1.7398629.936179-.0610173 1.70151.6345793 1.757296 1.5411211l5.730391 95.3263592c.05753.906541-.636322 1.684076-1.551581 1.739863-.036611.005229-.069734.005229-.104601.006973zm-110.76372 19.053068-27.4490403-64.7131387c-.3539-.8368079.0435837-1.8026235.8838783-2.1530368.8472679-.3486699 1.8183137.0453271 2.1722136.8803915l30.4667784 71.826006z" fill="#939598"/><path d="m123.676493 205.927729c0-2.276814 1.78519-4.121278 4.044571-4.279924v-37.621484s-14.509899-16.828554-24.459196-27.501342c-9.9475526-10.6693-24.0407911-29.136602-24.0407911-29.136602l-14.5046692 81.672445s16.5792552 21.1416 31.4988415 34.682197c13.2320238 12.008192 31.5023288 24.419099 31.5023288 24.419099v-37.957952c-2.254152-.158644-4.041085-2.004852-4.041085-4.276437z" fill="#a81e2c"/><path d="m128.024407 208.387596c-.400971 0-.808914-.142955-1.126204-.435838l-57.1295679-52.521894-.0174335-4.494356 58.2627454 53.555702 57.523565-54.193768.231865 4.30956-56.603076 53.325579c-.320776.30683-.732207.456758-1.145381.456758h.003487z" fill="#939598"/><path d="m247.515336 118.878795-71.297771-11.488675s6.631702 37.755724 6.631702 100.957379c0 63.208628-8.704545 106.300744-8.704545 106.300744l72.127605-7.799746s9.115975-34.483456 9.115975-93.990952c-.003486-59.505754-7.876454-93.980494-7.876454-93.980494zm-32.958026 166.629359c-1.945578 0-3.52331-1.558555-3.52331-3.486699 0-1.921172 1.575989-3.486699 3.52331-3.486699s3.521566 1.565527 3.521566 3.486699c0 1.924658-1.572501 3.486699-3.521566 3.486699zm-141.9679352-77.162399c0-63.201655 6.6317021-100.957378 6.6317021-100.957378l-71.29602731 11.488674s-7.87471036 34.476482-7.87471036 93.98398c0 59.514471 9.11771862 93.990953 9.11771862 93.990953l72.12586165 7.803233c0-.008717-8.7045447-43.097347-8.7045447-106.309462zm-33.0329891 76.93402c-1.8130838 0-3.2862142-1.459184-3.2862142-3.254833 0-1.797394 1.4696438-3.254835 3.2844707-3.254835 1.8130837 0 3.2844708 1.457441 3.2844708 3.251348 0 1.792163-1.4696437 3.25309-3.2844708 3.25309z" fill="#ce2227"/><ellipse cx="214.55731" cy="139.605479" fill="#a51724" rx="3.25832" ry="3.225197"/><path d="m214.560797 283.663691c-.127265 0-.258016-.017435-.388767-.048815-.889108-.207459-1.440007-1.086106-1.229062-1.976958.050558-.202229 4.928449-21.179955 4.928449-69.763623 0-48.677808-4.888352-71.700484-4.935423-71.923633-.190024-.889109.378308-1.760784 1.270902-1.952552.88911-.191768 1.77996.373077 1.969986 1.260442.050557.226635 5.010387 23.596237 5.010387 72.615743 0 49.047399-4.813389 69.665996-5.017361 70.520236-.183052.765331-.862957 1.270902-1.610854 1.270902v-.001742z" fill="#939598"/><ellipse cx="39.556386" cy="139.605479" fill="#a51724" rx="3.821422" ry="3.783069"/><path d="m39.5528989 283.663691c-.8071709 0-1.5132275-.587509-1.6387487-1.401654-.040097-.271963-4.1631189-27.914515-4.1631189-71.243726 0-43.330957 4.1230219-71.372735 4.1631189-71.651671.1359814-.897825.9762759-1.516714 1.8828177-1.382477.9065418.130752 1.5341476.967559 1.3999097 1.861898-.0435837.278936-4.128252 28.102796-4.128252 71.175736 0 43.090373 4.0881549 70.492343 4.1265087 70.755589.139468.889108-.4881379 1.734633-1.3946797 1.86887-.0836808.006974-.1673616.017435-.2475557.017435z" fill="#939598"/></svg>

<?xml version="1.0" encoding="UTF-8" standalone="no" ?>
<svg width="256px" height="315px" viewBox="0 0 256 315" version="1.1" xmlns="http://www.w3.org/2000/svg" xmlns:xlink="http://www.w3.org/1999/xlink" preserveAspectRatio="xMidYMid">
    <g>
        <path d="M150.815217,142.832419 L180.260392,73.1856003 C180.609062,72.3487925 181.585338,71.9530521 182.429119,72.3034654 C183.269414,72.6521353 183.672127,73.6144644 183.318228,74.4530156 L157.368468,135.82241 L150.815217,142.832419 L150.815217,142.832419 Z" fill="#939598"></path>
        <path d="M176.215821,107.388377 C176.215821,107.388377 162.124326,125.855679 152.178517,136.524979 C142.22399,147.197767 127.719321,164.024577 127.719321,164.024577 L127.719321,201.646063 C127.823921,201.639089 127.919805,201.618169 128.024407,201.618169 C130.430229,201.618169 132.379294,203.54457 132.379294,205.924242 C132.379294,208.305658 130.428487,210.235546 128.024407,210.235546 C127.919805,210.235546 127.823921,210.21114 127.719321,210.202422 L127.719321,248.158631 C127.719321,248.158631 145.986139,235.745981 159.218162,223.737789 C174.137748,210.197193 190.718747,189.053848 190.718747,189.053848 L176.215821,107.39012 L176.215821,107.388377 L176.215821,107.388377 Z" fill="#931A2B"></path>
        <path d="M117.376027,38.5487295 L117.240046,53.2155301 L64.0103512,74.5366963 L64.9465299,61.5051576 L117.377771,38.5452428 L117.376027,38.5487295 L117.376027,38.5487295 Z" fill="#A7A9AC"></path>
        <path d="M191.325433,60.9926129 L192.362726,74.0189214 L138.864555,53.1266193 L138.611769,38.4650487 L191.325433,60.9926129 L191.325433,60.9926129 Z M127.972106,33.9114195 L128.027894,48.892023 L50.1611815,18.4792883 L51.7772667,1.33867462 L127.972106,33.9114195 L127.972106,33.9114195 Z M51.7772667,1.33867462 L50.1611815,18.4792883 L39.8353215,24.5722954 L41.6205116,7.83613875 L51.7772667,1.33867462 L51.7772667,1.33867462 Z" fill="#BCBEC0"></path>
        <path d="M203.82002,0.700608645 L205.563369,17.8307623 L128.027894,48.892023 L127.970363,33.9096761 L203.82002,0.700608645 L203.82002,0.700608645 Z" fill="#A7A9AC"></path>
        <path d="M214.053482,7.11613535 L215.969423,23.8400885 L205.565112,17.8307623 L203.821763,0.702351985 L214.053482,7.11613535 L214.053482,7.11613535 Z" fill="#BCBEC0"></path>
        <path d="M74.6081737,77.5335144 L64.0086077,74.5384397 L117.240046,53.2172734 L39.8353215,24.5740388 L50.1611815,18.4792883 L128.027894,48.892023 L205.565112,17.8307623 L215.969423,23.8400885 L138.864555,53.1283626 L192.362726,74.0189214 L181.78931,77.1011636 L128.076707,57.2269777 L74.6081737,77.5300276 L74.6081737,77.5335144 L74.6081737,77.5335144 Z" fill="#808285"></path>
        <path d="M40.6756161,120.550667 C40.6198289,120.550667 40.5640417,120.550667 40.5099979,120.54195 C39.5999694,120.451296 38.9340098,119.652842 39.024664,118.7463 L48.5137161,24.0649807 C48.6043702,23.1671556 49.395851,22.5046827 50.3267997,22.5953369 C51.2368282,22.6825044 51.9027878,23.4879319 51.8121337,24.3875003 L42.3248249,119.06882 C42.2376574,119.916087 41.522884,120.550667 40.6791028,120.550667 L40.6756161,120.550667 L40.6756161,120.550667 Z M211.295503,120.550667 C210.429058,120.550667 209.695108,119.877734 209.644551,119.007802 L203.908931,23.6762136 C203.853144,22.7696719 204.54874,21.9903946 205.463998,21.9363507 C206.400177,21.8753334 207.165508,22.57093 207.221294,23.4774718 L212.951685,118.803831 C213.009215,119.710372 212.315363,120.487907 211.400104,120.543694 C211.363493,120.548923 211.33037,120.548923 211.295503,120.550667 L211.295503,120.550667 L211.295503,120.550667 Z M100.531783,139.603735 L73.0827427,74.8905963 C72.7288427,74.0537884 73.1263264,73.0879728 73.966621,72.7375595 C74.8138889,72.3888896 75.7849347,72.7828866 76.1388346,73.617951 L106.605613,145.443957 L100.531783,139.603735 L100.531783,139.603735 Z" fill="#939598"></path>
        <path d="M123.676493,205.927729 C123.676493,203.650915 125.461683,201.806451 127.721064,201.647805 L127.721064,164.026321 C127.721064,164.026321 113.211165,147.197767 103.261868,136.524979 C93.3143154,125.855679 79.2210769,107.388377 79.2210769,107.388377 L64.7164077,189.060822 C64.7164077,189.060822 81.2956629,210.202422 96.2152492,223.743019 C109.447273,235.751211 127.717578,248.162118 127.717578,248.162118 L127.717578,210.204166 C125.463426,210.045522 123.676493,208.199314 123.676493,205.927729 L123.676493,205.927729 L123.676493,205.927729 Z" fill="#A81E2C"></path>
        <path d="M128.024407,208.387596 C127.623436,208.387596 127.215493,208.244641 126.898203,207.951758 L69.7686351,155.429864 L69.7512016,150.935508 L128.013947,204.49121 L185.537512,150.297442 L185.769377,154.607002 L129.166301,207.932581 C128.845525,208.239411 128.434094,208.389339 128.02092,208.389339 L128.024407,208.389339 L128.024407,208.387596 L128.024407,208.387596 Z" fill="#939598"></path>
        <path d="M247.515336,118.878795 L176.217565,107.39012 C176.217565,107.39012 182.849267,145.145844 182.849267,208.347499 C182.849267,271.556127 174.144722,314.648243 174.144722,314.648243 L246.272327,306.848497 C246.272327,306.848497 255.388302,272.365041 255.388302,212.857545 C255.384816,153.351791 247.511848,118.877051 247.511848,118.877051 L247.515336,118.878795 L247.515336,118.878795 Z M214.55731,285.508154 C212.611732,285.508154 211.034,283.949599 211.034,282.021455 C211.034,280.100283 212.609989,278.534756 214.55731,278.534756 C216.504631,278.534756 218.078876,280.100283 218.078876,282.021455 C218.078876,283.946113 216.506375,285.508154 214.55731,285.508154 L214.55731,285.508154 L214.55731,285.508154 Z M72.5893748,208.345755 C72.5893748,145.1441 79.2210769,107.388377 79.2210769,107.388377 L7.92504959,118.877051 C7.92504959,118.877051 0.0503392252,153.353533 0.0503392252,212.861031 C0.0503392252,272.375502 9.16805785,306.851984 9.16805785,306.851984 L81.2939195,314.655217 C81.2939195,314.6465 72.5893748,271.55787 72.5893748,208.345755 L72.5893748,208.345755 L72.5893748,208.345755 Z M39.5563857,285.279775 C37.7433019,285.279775 36.2701715,283.820591 36.2701715,282.024942 C36.2701715,280.227548 37.7398153,278.770107 39.5546422,278.770107 C41.3677259,278.770107 42.839113,280.227548 42.839113,282.021455 C42.839113,283.813618 41.3694693,285.274545 39.5546422,285.274545 L39.5563857,285.279775 L39.5563857,285.279775 Z" fill="#CE2227"></path>
        <ellipse fill="#A51724" cx="214.55731" cy="139.605479" rx="3.25832049" ry="3.22519685"></ellipse>
        <path d="M214.560797,283.663691 C214.433532,283.663691 214.302781,283.646256 214.17203,283.614876 C213.282922,283.407417 212.732023,282.52877 212.942968,281.637918 C212.993526,281.435689 217.871417,260.457963 217.871417,211.874295 C217.871417,163.196487 212.983065,140.173811 212.935994,139.950662 C212.74597,139.061553 213.314302,138.189878 214.206896,137.99811 C215.096006,137.806342 215.986856,138.371187 216.176882,139.258552 C216.227439,139.485187 221.187269,162.854789 221.187269,211.874295 C221.187269,260.921694 216.37388,281.540291 216.169908,282.394531 C215.986856,283.159862 215.306951,283.665433 214.559054,283.665433 L214.559054,283.663691 L214.560797,283.663691 L214.560797,283.663691 Z" fill="#939598"></path>
        <ellipse fill="#A51724" cx="39.5563857" cy="139.605479" rx="3.82142243" ry="3.78306873"></ellipse>
        <path d="M39.5528989,283.663691 C38.745728,283.663691 38.0396714,283.076182 37.9141502,282.262037 C37.8740532,281.990074 33.7510313,254.347522 33.7510313,211.018311 C33.7510313,167.687354 37.8740532,139.645576 37.9141502,139.36664 C38.0501316,138.468815 38.8904261,137.849926 39.7969679,137.984163 C40.7035097,138.114915 41.3311155,138.951722 41.1968776,139.846061 C41.1532939,140.124997 37.0686256,167.948857 37.0686256,211.021797 C37.0686256,254.11217 41.1567805,281.51414 41.1951343,281.777386 C41.3346023,282.666494 40.7069964,283.512019 39.8004546,283.646256 C39.7167738,283.65323 39.633093,283.663691 39.5528989,283.663691 L39.5528989,283.663691 L39.5528989,283.663691 Z" fill="#939598"></path>
    </g>
</svg>
